X:1
T:Ranger's Command
M:6/8
L:1/8
K:G
 A| B6-| B3- BA B| A G2- G3| z2 B BAG| E6-| E3 z2 A| A A2- A3-| A2 FE/2-D/2 z D/2D/2|\
M:3/8
 EGA|
M:6/8
 G6-| G3 z2||
